X:1
T:Title
%%score { ( 1 3 5 ) | ( 2 4 ) }
L:1/8
M:4/4
K:Eb
V:1 treble nm="Grand Piano"
V:3 treble 
V:5 treble 
V:2 bass 
V:4 bass 
V:1
 z4 z2 B2 | E3 F G2 A2 | c4 B2 [B,EG]2 | [B,DF]2 [B,DB]2 [B,DF]2 [B,DB]2 | [B,EG]6 B2 | %5
 E3 F G2 A2 | c4 B2 [Ge]2 | d3 c B2 =A2 |[M:3/4] [B,DB]6 |[M:1/4] B2 |[M:4/4] e4 B4 | e4 B4 | %12
 G3 A B2 c2 | A6 A2 | d4 F2 z2 | d4 F2 z2 | [Bd]3 [Ac] [GB]2 [FA]2 | G6 z2 | e2- [Ge]2 z2 G2 | %19
 e4 B4 | A3 G F2 E2 | z4 z2 c2 | d4 [AB]4 | [Ge]4 [EGB]2 [CFA]2 | [EG]3 [B,EG] [A,DF]2 [A,DF]2 | %25
[M:3/4] [G,B,E]6 |] %26
V:2
 z4 z2 B,2 | E,3 F, G,2 A,2 | C4 B,2 E,2 | F,2 B,,2 F,2 B,,2 | E,6 B,2 | E,3 F, G,2 A,2 | %6
 C4 B,2 [E,B,]2 | [F,B,F]3 [F,EF] [F,DF]2 [F,CE]2 |[M:3/4] B,,6 |[M:1/4] B,2 | %10
[M:4/4] z4[K:treble] G2 z2 | G2 z2 G2 z2 | [B,E]3 [B,F] [B,G]2 [B,A]2 | [B,DF]6 [B,DF]2 | %14
 z2 F2 D,4 | F2 z2 z2 F2 | [B,,B,]3 [B,,B,] [C,B,]2 [D,B,]2 | [B,E]2 z2 z2 B,2 | %18
 [E,B,]4[K:treble] G2 z2 | G2 z2 G2 z2 | A,3 G, F,2 E,2 | [A,CE]4 [G,B,]4 | [F,B,F]4 [D,B,]4 | %23
 [E,B,]4 E,2 A,2 | B,3 B,, B,,2 B,,2 |[M:3/4] E,6 |] %26
V:3
 x8 | x8 | x8 | x8 | x8 | x8 | x8 | x8 |[M:3/4] x6 |[M:1/4] x2 |[M:4/4] G2 G2 z2 G2 | z2 G2 z2 G2 | %12
 x8 | x8 | F2 z2 [B,A]2- [B,FA]2 | z2 F2 [B,A]4 | x8 | z4 C2 B2 | G2 z2 B4 | z2 G2 z2 G2 | x8 | %21
 c6 z2 | x8 | x8 | x8 |[M:3/4] x6 |] %26
V:4
 x8 | x8 | x8 | x8 | x8 | x8 | x8 | x8 |[M:3/4] x6 |[M:1/4] x2 |[M:4/4] [E,B,]4[K:treble] [G,B,]4 | %11
 B,4 [G,B,]4 | x8 | x8 | [B,,B,]4 z4 | [F,B,]4 D,4 | x8 | E,6 z2 | z4[K:treble] [G,B,]4 | %19
 B,4 [G,B,]4 | x8 | x8 | x8 | x8 | x8 |[M:3/4] x6 |] %26
V:5
 x8 | x8 | x8 | x8 | x8 | x8 | x8 | x8 |[M:3/4] x6 |[M:1/4] x2 |[M:4/4] x8 | x8 | x8 | x8 | x8 | %15
 x8 | x8 | z2 E4 z2 | x8 | x8 | x8 | z4 =E4 | x8 | x8 | x8 |[M:3/4] x6 |] %26

